X:1
T:Yattendon 46, SM
T:Harry Ellis Woolridge, 1899
T:Yattendon 46, SM
T:Public Domain
C:Harry Ellis Woolridge, 1899
Z:Public Domain
%%score ( 1 2 ) 3
L:1/8
M:4/4
K:F
V:1 treble 
V:2 treble 
V:3 bass 
V:1
 [CF]4 [EG]2 [FA]2 | [DB]4 [EB]4 | [FA]8 | [Fd]4 [Fc]2 F2 | [FA]4 [EG]4 | F8 | [Fc]4 [DB]2 [FA]2 | %7
 [Fd]4 [Fc]4 | [Gc]2 [G=B]2 [Ec]4- | [Ec]4 [FA]4 | [DG]2 [DF]2 [CF]4 | [CE]4 [CF]4- | [CF]4 z4 |] %13
V:2
 x8 | x8 | x8 | x6 F2 | x8 | F8 | x8 | x8 | x8 | x8 | x8 | x8 | x8 |] %13
V:3
 [F,A,]4 [C,C]2 [F,C]2 | [G,B,]4 [G,B,]4 | [F,C]8 | [B,,B,]4 [F,A,]2 [D,A,]2 | [C,C]4 [C,C]4 | %5
 [F,A,]8 | [F,,A,]4 [G,,B,]2 [A,,C]2 | [B,,B,]4 [A,,C]4 | [G,,D]2 [G,,D]2 [C,C]4- | [C,C]4 [F,C]4 | %10
 [B,,B,]2 [B,,B,]2 [C,G,]4 | [C,G,]4 [F,,A,]4- | [F,,A,]4 z4 |] %13

